X:50
T: Xiuzhenzha
N: C1548
O: China,Heilongjiang, Mudanjiang
S: III, 65]
R: Xiaodiao. Fun Xiuhua]
M: 2/4
L: 1/16
K: E
B2e2c2B2 | B2G2F2G2 | B2e2c2B2 | e2G2F4 |
E4E2C2 | B4G2B2 | F2E2C2B,C | E8 |
E2E4C2 | B4B2G2 | E2F2B2G2 | F8 |
B,4B,2B2 | F2GFE4 | F2E2C2DC | B,8 |
B2e2c2B2 | e2G2F2G2 | B2e2c2B2 | e2G2F2G2 |
E4E2C2 | B4G2B2 | F2E2C2B,C | E8 |
E2E4C2 | B4B2G2 | E2F2B2G2 | F8 |
B,2C2E4 | F6E2 | C2C2D2C2 | B,8 |
B2e2c2B2 | e2G2F2G2 | B2e2c2B2 | e2G2F4 |
E4E2C2 | B4G2B2 | F2E2C2B,C | E8 |
E2E4C2 | B4B2G2 | E2F2B2G2 | F8 |
B,2C2E4 | F2GFE4 | F2E2C2DC | B,8 |
B2G2B2G2 | F2G2F4 | B,2C2E4 | F2GFE4 | F2E2C2DC | B,8

@@@ Tune index: 6605
